X: 122005
T: ARKANSAS TRAVELLER
P: Same figure.
%R: reel
B: James Kerr "Merry Melodies" v.1 p.22 s.0 #5
Z: 2017 John Chambers <jc:trillian.mit.edu>
M: 2/4
L: 1/16
K: A
|:\
ABcA F2F2 | E2E2 A2A2 |\
B2B2 c2c2 | BcBA FAE2 |\
ABcA F2F2 | E2E2 A2A2 |\
agae fafd | (cA)BG A4 :|
|:\
edce dcBd | cBAc BGE2 |\
uAGAc BGE2 | vAGAc B2e2 |\
edce dcBd | cBAc BGE2 |\
vagae fafd | cABG A4 :|

%%sep 1 1 500
%%sep 1 1 500

